styles/5/Numix/24/places/default-folder-open.svg

<?xml version="1.0" encoding="UTF-8" standalone="no"?>
<svg
   xmlns:dc="http://purl.org/dc/elements/1.1/"
   xmlns:cc="http://creativecommons.org/ns#"
   xmlns:rdf="http://www.w3.org/1999/02/22-rdf-syntax-ns#"
   xmlns:svg="http://www.w3.org/2000/svg"
   xmlns="http://www.w3.org/2000/svg"
   xmlns:sodipodi="http://sodipodi.sourceforge.net/DTD/sodipodi-0.dtd"
   xmlns:inkscape="http://www.inkscape.org/namespaces/inkscape"
   viewBox="0 0 24 24"
   id="svg2"
   version="1.1"
   inkscape:version="0.91 r13725"
   sodipodi:docname="blue-folder-open.svg">
  <metadata
     id="metadata31">
    <rdf:RDF>
      <cc:Work
         rdf:about="">
        <dc:format>image/svg+xml</dc:format>
        <dc:type
           rdf:resource="http://purl.org/dc/dcmitype/StillImage" />
      </cc:Work>
    </rdf:RDF>
  </metadata>
  <sodipodi:namedview
     pagecolor="#ffffff"
     bordercolor="#666666"
     borderopacity="1"
     objecttolerance="10"
     gridtolerance="10"
     guidetolerance="10"
     inkscape:pageopacity="0"
     inkscape:pageshadow="2"
     inkscape:window-width="722"
     inkscape:window-height="480"
     id="namedview29"
     showgrid="false"
     inkscape:zoom="9.8333333"
     inkscape:cx="12"
     inkscape:cy="12"
     inkscape:window-x="0"
     inkscape:window-y="24"
     inkscape:window-maximized="0"
     inkscape:current-layer="svg2" />
  <defs
     id="defs4">
    <radialGradient
       r="24"
       cy="40.5"
       cx="24"
       gradientTransform="matrix(0.625,0,0,0.10416663,-3,15.7813)"
       gradientUnits="userSpaceOnUse"
       id="radialGradient3129">
      <stop
         style="stop-color:#000;stop-opacity:1"
         id="stop7" />
      <stop
         offset="1"
         style="stop-color:#000;stop-opacity:0.196"
         id="stop9" />
    </radialGradient>
  </defs>
  <path
     inkscape:connector-curvature="0"
     id="path13"
     style="opacity:0.1;fill:url(#radialGradient3129);fill-opacity:1;stroke:none"
     d="m 12,17.4978 c -4.913,0 -9.264,0.391 -12,1 l 0,3 c 2.736,0.609 7.087,1 12,1 4.913,0 9.264,-0.391 12,-1 l 0,-3 c -2.736,-0.609 -7.087,-1 -12,-1 z" />
  <rect
     id="rect15"
     style="fill:#f57c00;fill-opacity:1;stroke:none"
     ry="2.5"
     rx="2.391"
     y="4.9977856"
     x="1"
     height="16"
     width="22" />
  <path
     inkscape:connector-curvature="0"
     id="path17"
     style="opacity:0.2;fill:#ffffff;fill-opacity:1;stroke:none"
     d="M 3.391,4.9978 C 2.066,4.9978 1,6.1128 1,7.4978 l 0,1 c 0,-1.385 1.067,-2.5 2.391,-2.5 l 17.217,0 c 1.325,0 2.391,1.115 2.391,2.5 l 0,-1 c 0,-1.385 -1.067,-2.5 -2.391,-2.5 l -17.217,0 z" />
  <path
     style="fill:#fff1ed;fill-opacity:1;stroke:none;opacity:0.6"
     d="M 6 5.9980469 L 2 9.9980469 L 4 9.9980469 L 4 18.998047 L 8 18.998047 L 8 9.9980469 L 10 9.9980469 L 6 5.9980469 z "
     id="rect21" />
  <path
     inkscape:connector-curvature="0"
     id="path25"
     style="fill:#ffb300;fill-opacity:1;stroke:none"
     d="m 3.391,11.9978 3.826,0 c 5.261,-0.361 4.304,-4 7.652,-4 l 5.739,0 c 1.325,0 2.391,0.805 2.391,1.806 l 0,9.389 c 0,1 -1.067,1.806 -2.391,1.806 l -17.217,0 C 2.066,20.9988 1,20.1938 1,19.1928 l 0,-5.055 c 0,-1.083 0.957,-2.139 2.391,-2.139 z" />
  <path
     inkscape:connector-curvature="0"
     id="path27"
     style="opacity:0.15;fill:#000000;fill-opacity:1;stroke:none"
     d="m 1,17.4978 0,1 c 0,1.385 1.067,2.5 2.391,2.5 l 17.217,0 c 1.325,0 2.391,-1.115 2.391,-2.5 l 0,-1 c 0,1.385 -1.067,2.5 -2.391,2.5 l -17.217,0 C 2.066,19.9978 1,18.8828 1,17.4978 Z" />
</svg>

<svg viewBox="0 0 24 24" xmlns="http://www.w3.org/2000/svg">
 <defs>
  <radialGradient gradientUnits="userSpaceOnUse" cy="40.5" cx="24" id="radialGradient3129" r="24" gradientTransform="matrix(0.625 0 0 0.10417 -3 15.781)">
   <stop style="stop-color:#000;stop-opacity:1"/>
   <stop offset="1" style="stop-color:#000;stop-opacity:0.196"/>
  </radialGradient>
 </defs>
 <path style="fill:url(#radialGradient3129);opacity:0.1;fill-opacity:1;stroke:none" d="m 12 17.498 c -4.913 0 -9.264 0.391 -12 1 l 0 3 c 2.736 0.609 7.087 1 12 1 4.913 0 9.264 -0.391 12 -1 l 0 -3 c -2.736 -0.609 -7.087 -1 -12 -1 z"/>
 <rect width="22" y="4.998" x="1" style="fill:#f57c00;fill-opacity:1;stroke:none" height="16" ry="2.5" rx="2.391"/>
 <path style="fill:#fff;opacity:0.2;fill-opacity:1;stroke:none" d="M 3.391,4.9978 C 2.066,4.9978 1,6.1128 1,7.4978 l 0,1 c 0,-1.385 1.067,-2.5 2.391,-2.5 l 17.217,0 c 1.325,0 2.391,1.115 2.391,2.5 l 0,-1 c 0,-1.385 -1.067,-2.5 -2.391,-2.5 l -17.217,0 z"/>
 <path style="fill:#fff1ed;opacity:0.6;fill-opacity:1;stroke:none" d="m 6 5.998 l -4 4 l 2 0 l 0 9 l 4 0 l 0 -9 l 2 0 l -4 -4 z"/>
 <path style="fill:#ffb300;fill-opacity:1;stroke:none" d="m 3.391,11.9978 3.826,0 c 5.261,-0.361 4.304,-4 7.652,-4 l 5.739,0 c 1.325,0 2.391,0.805 2.391,1.806 l 0,9.389 c 0,1 -1.067,1.806 -2.391,1.806 l -17.217,0 C 2.066,20.9988 1,20.1938 1,19.1928 l 0,-5.055 c 0,-1.083 0.957,-2.139 2.391,-2.139 z"/>
 <path style="fill:#000;opacity:0.15;fill-opacity:1;stroke:none" d="m 1 17.498 0 1 c 0 1.385 1.067 2.5 2.391 2.5 l 17.217 0 c 1.325 0 2.391 -1.115 2.391 -2.5 l 0 -1 c 0 1.385 -1.067 2.5 -2.391 2.5 l -17.217 0 c -1.325 0 -2.391 -1.115 -2.391 -2.5 z"/>
</svg>
